X: 1
T:'Tired are We Carrying' ( Gur ann sgith taruinn sinn )  "CYMRU"
M:C
L:1/8
Q:80
C:Reel
S:
K:HP
| B|
{GdG}f2{g}f3/2e/2{g}d3/2B/2{g}A3/2{d}B/2|
{Gdc}d2{g}d3/2B/2{Gdc}d2{g}d3/2e/2|
{GdG}f2{g}f3/2e/2{g}d3/2B/2{g}A3/2{d}B/2|  !
{Gdc}d2{g}e3/2d/2{gBd}B2{GdG}e2| |
{GdG}f2{g}f3/2e/2{g}d3/2B/2{g}A3/2{d}B/2|
{Gdc}d2{g}d3/2B/2{Gdc}d2{g}de|  !
{g}f3/2e/2{A}e3/2f/2{g}d3/2B/2{g}A3/2{d}B/2|
{GdG}e2{g}e3/2d/2{gBd}B2{e}A3/2{d}B/2|] |
{Gdc}d2{g}e3/2f/2a3/2f/2{g}e3/2f/2|  !
a3/2f/2{g}e3/2f/2a3/2f/2{g}e3/2f/2|
{Gdc}d2{g}e3/2f/2a3/2f/2{g}e3/2f/2|
a3/2e/2{g}f3/2e/2{gBd}B2{e}A3/2{d}B/2| |  !
{Gdc}d2{g}e3/2f/2a3/2f/2{g}e3/2f/2|
a3/2f/2{g}e3/2f/2a3/2f/2{g}e3/2f/2|
{gde}d3/2c/2{GdG}e2f/2{g}d3/2{g}e3/2f/2|  !
a3/2e/2{g}f3/2d/2{gBd}B2{e}A3/2{d}B/2|]
